public/img/instagram.svg

<svg enable-background="new 0 0 20 20" viewBox="0 0 20 20" xmlns="http://www.w3.org/2000/svg" xmlns:xlink="http://www.w3.org/1999/xlink"><radialGradient id="a" cx="-603.0173" cy="811.7922" gradientTransform="matrix(0 -1.982 1.8439 0 -1491.5541 -1173.6573)" gradientUnits="userSpaceOnUse" r="9.9923"><stop offset="0" stop-color="#fd5"/><stop offset=".1" stop-color="#fd5"/><stop offset=".5" stop-color="#ff543e"/><stop offset="1" stop-color="#c837ab"/></radialGradient><radialGradient id="b" cx="568.2048" cy="381.2207" gradientTransform="matrix(.1739 .8687 -3.5818 .7172 1263.2953 -765.5728)" gradientUnits="userSpaceOnUse" r="9.9923"><stop offset="0" stop-color="#3771c8"/><stop offset=".128" stop-color="#3771c8"/><stop offset="1" stop-color="#60f" stop-opacity="0"/></radialGradient><path d="m10 0c-4.2 0-5.4 0-5.6 0-.9.1-1.4.2-2 .5-.4.2-.8.5-1.2.9-.6.6-1 1.4-1.1 2.4-.1.5-.1.6-.1 2.9v3.3 5.6c.1.8.2 1.4.5 1.9.5 1.1 1.5 2 2.7 2.3.5.1.9.2 1.5.2h5.3s5 0 5.3 0c.7 0 1.1-.1 1.5-.2 1.2-.3 2.2-1.1 2.7-2.2.3-.6.4-1.1.5-1.9 0-.2 0-2.9 0-5.7s0-5.5 0-5.7c-.1-.8-.2-1.3-.5-1.9-.2-.4-.5-.8-.9-1.1-.7-.6-1.5-1-2.4-1.2-.4-.1-.5-.1-2.9-.1z" fill="url(#a)"/><path d="m10 0c-4.2 0-5.4 0-5.6 0-.9.1-1.4.2-2 .5-.4.2-.8.5-1.2.9-.6.6-1 1.4-1.1 2.4-.1.5-.1.6-.1 2.9v3.3 5.6c.1.8.2 1.4.5 1.9.5 1.1 1.5 2 2.7 2.3.5.1.9.2 1.5.2h5.3s5 0 5.3 0c.7 0 1.1-.1 1.5-.2 1.2-.3 2.2-1.1 2.7-2.2.3-.6.4-1.1.5-1.9 0-.2 0-2.9 0-5.7s0-5.5 0-5.7c-.1-.8-.2-1.3-.5-1.9-.2-.4-.5-.8-.9-1.1-.7-.6-1.5-1-2.4-1.2-.4-.1-.5-.1-2.9-.1z" fill="url(#b)"/><path d="m10 2.6c-2 0-2.3 0-3 0s-1.4.2-1.9.4c-.4.2-.8.4-1.3.8-.4.5-.6.9-.8 1.3-.2.5-.3 1-.3 1.8v3s0 2.3 0 3c0 .8.2 1.3.3 1.8.2.5.4.9.8 1.3s.8.7 1.3.8c.5.2 1 .3 1.8.3h3s2.3 0 3 0c.8 0 1.3-.2 1.8-.3.5-.2.9-.4 1.3-.8s.7-.8.8-1.3c.2-.5.3-1 .3-1.8s0-1 0-3 0-2.3 0-3c0-.8-.2-1.3-.3-1.8-.2-.5-.4-.9-.8-1.3s-.8-.7-1.3-.8c-.5-.2-1-.3-1.8-.3-.6-.1-.9-.1-2.9-.1zm-.7 1.3h.7 3c.7 0 1.1.2 1.4.3s.6.3.8.6c.3.3.4.5.6.8 0 .3.2.7.2 1.4v3s0 2.2 0 3c0 .7-.2 1.1-.3 1.4s-.3.6-.6.8c-.3.3-.5.4-.8.6-.2 0-.6.2-1.3.2-.8 0-1 0-3 0s-2.2 0-3 0c-.7 0-1.1-.2-1.4-.3s-.6-.3-.8-.6c-.3-.3-.4-.5-.6-.8-.1-.2-.2-.6-.2-1.3 0-.8 0-1 0-3s0-2.2 0-3c0-.7.2-1.1.3-1.4s.3-.6.6-.8c.3-.3.5-.4.8-.6.2-.1.6-.2 1.3-.2s1-.1 2.3-.1zm4.6 1.3c-.5 0-.9.4-.9.9s.4.9.9.9.9-.4.9-.9-.4-.9-.9-.9zm-3.9 1c-2.1 0-3.8 1.7-3.8 3.8s1.7 3.8 3.8 3.8 3.8-1.7 3.8-3.8-1.7-3.8-3.8-3.8zm0 1.3c1.4 0 2.5 1.1 2.5 2.5s-1.1 2.5-2.5 2.5-2.5-1.2-2.5-2.5 1.1-2.5 2.5-2.5z" fill="#fff"/></svg>

<?xml version="1.0" encoding="utf-8"?>
<!-- Generator: Adobe Illustrator 26.5.0, SVG Export Plug-In . SVG Version: 6.00 Build 0)  -->
<svg version="1.1" id="Calque_1" xmlns="http://www.w3.org/2000/svg" xmlns:xlink="http://www.w3.org/1999/xlink" x="0px" y="0px"
	 viewBox="0 0 20 20" style="enable-background:new 0 0 20 20;" xml:space="preserve">
<style type="text/css">
	.st0{fill:url(#SVGID_1_);}
	.st1{fill:url(#SVGID_00000002366101218840175460000001317545486471540902_);}
	.st2{fill:#FFFFFF;}
</style>
<g id="instagram">
	
		<radialGradient id="SVGID_1_" cx="-603.0173" cy="811.7922" r="9.9923" gradientTransform="matrix(0 -1.982 1.8439 0 -1491.5541 -1173.6573)" gradientUnits="userSpaceOnUse">
		<stop  offset="0" style="stop-color:#FFDD55"/>
		<stop  offset="0.1" style="stop-color:#FFDD55"/>
		<stop  offset="0.5" style="stop-color:#FF543E"/>
		<stop  offset="1" style="stop-color:#C837AB"/>
	</radialGradient>
	<path class="st0" d="M10,0C5.8,0,4.6,0,4.4,0C3.5,0.1,3,0.2,2.4,0.5C2,0.7,1.6,1,1.2,1.4C0.6,2,0.2,2.8,0.1,3.8C0,4.3,0,4.4,0,6.7
		C0,7.5,0,8.6,0,10c0,4.2,0,5.4,0,5.6c0.1,0.8,0.2,1.4,0.5,1.9C1,18.6,2,19.5,3.2,19.8C3.7,19.9,4.1,20,4.7,20c0.2,0,2.8,0,5.3,0
		s5,0,5.3,0c0.7,0,1.1-0.1,1.5-0.2c1.2-0.3,2.2-1.1,2.7-2.2c0.3-0.6,0.4-1.1,0.5-1.9c0-0.2,0-2.9,0-5.7s0-5.5,0-5.7
		c-0.1-0.8-0.2-1.3-0.5-1.9C19.3,2,19,1.6,18.6,1.3c-0.7-0.6-1.5-1-2.4-1.2C15.8,0,15.7,0,13.3,0L10,0L10,0z"/>
	
		<radialGradient id="SVGID_00000029040846286603395010000013500758515109746617_" cx="568.2048" cy="381.2207" r="9.9923" gradientTransform="matrix(0.1739 0.8687 -3.5818 0.7172 1263.2953 -765.5728)" gradientUnits="userSpaceOnUse">
		<stop  offset="0" style="stop-color:#3771C8"/>
		<stop  offset="0.128" style="stop-color:#3771C8"/>
		<stop  offset="1" style="stop-color:#6600FF;stop-opacity:0"/>
	</radialGradient>
	<path style="fill:url(#SVGID_00000029040846286603395010000013500758515109746617_);" d="M10,0C5.8,0,4.6,0,4.4,0
		C3.5,0.1,3,0.2,2.4,0.5C2,0.7,1.6,1,1.2,1.4C0.6,2,0.2,2.8,0.1,3.8C0,4.3,0,4.4,0,6.7C0,7.5,0,8.6,0,10c0,4.2,0,5.4,0,5.6
		c0.1,0.8,0.2,1.4,0.5,1.9C1,18.6,2,19.5,3.2,19.8C3.7,19.9,4.1,20,4.7,20c0.2,0,2.8,0,5.3,0s5,0,5.3,0c0.7,0,1.1-0.1,1.5-0.2
		c1.2-0.3,2.2-1.1,2.7-2.2c0.3-0.6,0.4-1.1,0.5-1.9c0-0.2,0-2.9,0-5.7s0-5.5,0-5.7c-0.1-0.8-0.2-1.3-0.5-1.9C19.3,2,19,1.6,18.6,1.3
		c-0.7-0.6-1.5-1-2.4-1.2C15.8,0,15.7,0,13.3,0L10,0L10,0z"/>
	<path class="st2" d="M10,2.6c-2,0-2.3,0-3,0S5.6,2.8,5.1,3C4.7,3.2,4.3,3.4,3.8,3.8C3.4,4.3,3.2,4.7,3,5.1c-0.2,0.5-0.3,1-0.3,1.8
		c0,0.8,0,1,0,3s0,2.3,0,3c0,0.8,0.2,1.3,0.3,1.8c0.2,0.5,0.4,0.9,0.8,1.3c0.4,0.4,0.8,0.7,1.3,0.8c0.5,0.2,1,0.3,1.8,0.3
		c0.8,0,1,0,3,0s2.3,0,3,0c0.8,0,1.3-0.2,1.8-0.3c0.5-0.2,0.9-0.4,1.3-0.8c0.4-0.4,0.7-0.8,0.8-1.3c0.2-0.5,0.3-1,0.3-1.8
		c0-0.8,0-1,0-3s0-2.3,0-3c0-0.8-0.2-1.3-0.3-1.8c-0.2-0.5-0.4-0.9-0.8-1.3c-0.4-0.4-0.8-0.7-1.3-0.8c-0.5-0.2-1-0.3-1.8-0.3
		C12.3,2.6,12,2.6,10,2.6L10,2.6z M9.3,3.9c0.2,0,0.4,0,0.7,0c2,0,2.2,0,3,0c0.7,0,1.1,0.2,1.4,0.3c0.3,0.1,0.6,0.3,0.8,0.6
		c0.3,0.3,0.4,0.5,0.6,0.8C15.8,5.9,16,6.3,16,7c0,0.8,0,1,0,3s0,2.2,0,3c0,0.7-0.2,1.1-0.3,1.4c-0.1,0.3-0.3,0.6-0.6,0.8
		c-0.3,0.3-0.5,0.4-0.8,0.6C14.1,15.8,13.7,16,13,16c-0.8,0-1,0-3,0s-2.2,0-3,0c-0.7,0-1.1-0.2-1.4-0.3c-0.3-0.1-0.6-0.3-0.8-0.6
		c-0.3-0.3-0.4-0.5-0.6-0.8C4.1,14.1,4,13.7,4,13c0-0.8,0-1,0-3s0-2.2,0-3c0-0.7,0.2-1.1,0.3-1.4c0.1-0.3,0.3-0.6,0.6-0.8
		c0.3-0.3,0.5-0.4,0.8-0.6C5.9,4.1,6.3,4,7,4C7.7,4,8,3.9,9.3,3.9L9.3,3.9z M13.9,5.2c-0.5,0-0.9,0.4-0.9,0.9s0.4,0.9,0.9,0.9
		c0.5,0,0.9-0.4,0.9-0.9S14.4,5.2,13.9,5.2L13.9,5.2z M10,6.2c-2.1,0-3.8,1.7-3.8,3.8s1.7,3.8,3.8,3.8c2.1,0,3.8-1.7,3.8-3.8
		S12.1,6.2,10,6.2L10,6.2z M10,7.5c1.4,0,2.5,1.1,2.5,2.5s-1.1,2.5-2.5,2.5S7.5,11.3,7.5,10S8.6,7.5,10,7.5z"/>
</g>
</svg>
